X: 1
T: Don Quixote
O: Dorset, England, ca. 1820
B: "Benjamin Rose His Book", 1820-1822 p.20 #1
S: http://www.timlaycock.co.uk/page20/page20.html
R: hornpipe
Z: 2012 John Chambers <jc:trillian.mit.edu>
M: 2/4
L: 1/8
K: D
|:\
f>g a>f | g>e d>c | d>e f>g | f2 e2 |\
f>g a>f | g>e d>c | B>d c>e | d2 d2 :|
|:\
eA  Ae  | fd  d>f | eA  Ae  | f2 e2 |\
f>g a>f | g>a b>g | f>a g>f | d2 d2 :|
